X:1
T:Title
%%score { ( 1 4 5 ) | ( 2 3 ) }
L:1/8
M:4/4
K:Eb
V:1 treble nm="Grand Piano"
V:4 treble 
V:5 treble 
V:2 bass 
V:3 bass 
V:1
 z4 z[Q:1/4=100] GFE | G2[K:bass] [E,G,B,E]>[E,G,B,E] [E,G,B,E][K:treble][B,EG][A,EF][G,E] | %2
 [B,EG]2[K:bass] [E,G,B,E]>[E,G,B,E] [E,G,B,E][K:treble]GFE | G2 B2 G2 B2 |[M:5/8] D-D- D3 | %5
[M:3/8] D[DF][DA] |[M:4/4] [Dc]2 [DA]>[DA] [DA][A,B,D][A,DF][A,DA] | %7
 [Dc]2 [DA]>[DA] [DA][A,B,D][A,DF][A,DA] | [Dc]2 [DA]2 [Ad]2 [DAc]2 |[M:5/8] [EGB]-[EGB]- [EGB]3 | %10
[M:3/8] [B,EG][A,EF][G,E] | %11
[M:4/4] [B,EG]2[K:bass] [E,G,B,E]>[E,G,B,E] [E,G,B,E][K:treble][B,EG][A,EF][G,E] | %12
 [B,EG]2[K:bass] [E,G,B,E]>[E,G,B,E] [E,G,B,E][K:treble]GFE | G2 B2 G2 B2 | %14
[M:5/8] [Ec]-[Ec]- [Ec]3 |[M:3/8] cAc |[M:4/4] e2 c>c cedc | e2 G>G GB,EG | B2 G2 E2 [DF]2 | %19
[M:5/8] E-E- E3 |[M:3/8] GFE |[M:4/4] A2 A2 AAGF | z4 G2 z2 | [CA]2 z2 [CA]2 z2 | G2 G2 GGFE | %25
 A2 A2 AAGF | z4 G2 z2 | z4 _G2 z2 |[M:17/16] z GGGA3/2Bcd |[M:4/4] e2- [Ge-]2 edcB | %30
 c2- [Gc-]2 cBGE | z2 B,2 z FcB | z2 E2 z Bcd | e2- [Ge-]2 edcB | %34
 e2- [B,Ae-]2 [B,Be][EBe][EBd][EAc] | [EGB]2 [B,EG]2 [=A,E]2 [_A,DF]2 | %36
[M:5/8] [G,E]-[G,E]- [G,E]3 |] %37
V:2
 z4 z [E,B,E][E,A,E][E,G,] | [E,B,E]2 E,,>E,, z E,E,E, | E,2 E,,>E,, z [E,B,E][E,A,E][E,G,] | %3
 [E,B,E]2 [E,G,E]2 [E,B,E]2 [E,G,E]2 |[M:5/8] [F,A,B,]-[F,A,B,]- [F,A,B,]3 | %5
[M:3/8] [F,A,B,][B,,A,][B,,A,] |[M:4/4] [B,,A,]2 B,,>B,, B,,B,,B,,B,, | %7
 [B,,A,]2 B,,>B,, B,,B,,B,,B,, | [B,,A,]2 [B,,B,]2 [B,,B,]2 B,,2 |[M:5/8] E,-E,- E,3 | %10
[M:3/8] E,E,E, |[M:4/4] E,2 E,,>E,, z E,E,E, | E,2 E,,>E,, z [E,B,E][E,A,E][E,G,] | %13
 [E,B,E]2 [E,G,E]2 [E,B,E]2 [E,G,E]2 |[M:5/8] [A,,A,]-[A,,A,]- [A,,A,]3 | %15
[M:3/8][K:treble] [A,E][A,CE][A,EA] |[M:4/4] [A,CA]2 [A,EF]>[A,EF] [G,EF][A,CA][A,CA][=A,E_G] | %17
 [B,EG]2[K:bass] [B,E]>[B,E] [B,E]B,,E,G, | B,2 [E,B,E]2 [C,=A,]2 [B,,_A,]2 | %19
[M:5/8] [E,G,]-[E,G,]- [E,G,]3 |[M:3/8] z3 |[M:4/4] D6 z2 | E6 z2 | C,2 B,,2 A,,2 z2 | E6 z2 | %25
 D6 z2 | E6 z2 | D6 z2 |[M:17/16] z [G,B,][G,B,][G,B,][F,B,]3/2 z/ z/ z/ z/ z | %29
[M:4/4] [E,B,]2 [B,,B,]2 [E,B,]2 z2 | [E,B,]2 [B,,B,]2 [E,B,]2 z2 | [F,A,B,]2 [B,,A,]2 [F,A,]2 z2 | %32
 [E,B,E]2 [B,,B,]2 [E,B,]2 z2 | [E,B,]2 [B,,B,]2 [E,B,]2 z2 | [E,B,]2 F,2 G,G,A,A, | %35
 B,2 B,,2 C,2 B,,2 |[M:5/8] E,-E,- E,3 |] %37
V:3
 x8 | z4 E,,2 z2 | z4 E,,2 z2 | x8 |[M:5/8] x5 |[M:3/8] x3 |[M:4/4] x8 | x8 | x8 |[M:5/8] x5 | %10
[M:3/8] x3 |[M:4/4] z4 E,,2 z2 | z4 E,,2 z2 | x8 |[M:5/8] x5 |[M:3/8][K:treble] x3 |[M:4/4] x8 | %17
 x2[K:bass] x6 | x8 |[M:5/8] x5 |[M:3/8] x3 |[M:4/4] [F,B,]2 [B,,B,]2 [F,B,]2 z2 | %22
 [E,B,]2 [B,,B,]2 [E,B,]2 z2 | x8 | [E,B,]2 [B,,B,]2 [E,B,]2 z2 | [F,B,]2 [B,,B,]2 [F,B,]2 z2 | %26
 [E,B,]2 [B,,B,]2 [E,B,]2 z2 | [D,B,]2 [D,B,]2 [D,=A,C]2 z2 |[M:17/16] x17/2 |[M:4/4] x8 | x8 | %31
 x8 | x8 | x8 | x8 | x8 |[M:5/8] x5 |] %37
V:4
 x8 | x2[K:bass] x3[K:treble] x3 | x2[K:bass] x3[K:treble] x3 | x8 |[M:5/8] x5 |[M:3/8] x3 | %6
[M:4/4] x8 | x8 | x8 |[M:5/8] x5 |[M:3/8] x3 |[M:4/4] x2[K:bass] x3[K:treble] x3 | %12
 x2[K:bass] x3[K:treble] x3 | x8 |[M:5/8] x5 |[M:3/8] x3 |[M:4/4] x8 | x8 | x8 |[M:5/8] x5 | %20
[M:3/8] x3 |[M:4/4] x8 | G2 G2 z EEE | E2- [_DE-G]2 EEEE | x8 | x8 | G2 G2 z EFE | G2 G2 z ED_D | %28
[M:17/16] D/-D/-D/-D/-D/-D/-D/-D-<D z/ z/ z/ z/ z |[M:4/4] G2 z2 G2 z2 | G2 z2 G2 z2 | D6 z2 | %32
 G6 z2 | G2 z2 G2 z2 | G2 z2 z4 | x8 |[M:5/8] x5 |] %37
V:5
 x8 | x2[K:bass] x3[K:treble] x3 | x2[K:bass] x3[K:treble] x3 | x8 |[M:5/8] x5 |[M:3/8] x3 | %6
[M:4/4] x8 | x8 | x8 |[M:5/8] x5 |[M:3/8] x3 |[M:4/4] x2[K:bass] x3[K:treble] x3 | %12
 x2[K:bass] x3[K:treble] x3 | x8 |[M:5/8] x5 |[M:3/8] x3 |[M:4/4] x8 | x8 | x8 |[M:5/8] x5 | %20
[M:3/8] x3 |[M:4/4] x8 | x8 | x8 | x8 | x8 | x8 | x8 |[M:17/16] x17/2 |[M:4/4] x8 | x8 | %31
 z4 B,2 z2 | z4 E2 z2 | x8 | x8 | x8 |[M:5/8] x5 |] %37

